%
(MILL HOLES)
(WRITEN FOR GRBL CONTROL)
(THIS PROGRAM WAS GENERATED BY generateHole.py)
(DATE: 2021/03/01, 18:45)

( *** UNPROVEN PROGRAM *** )

(MAKE SURE TO SET G28 WITH G28.1 RETRACTED TO TOP POSITION )

( SETUP INFORMATION )
( ZERO SET INFORMATION )
(X0 = CENTER OF HOLE)
(Y0 = CENTER OF HOLE)
(Z0 = TOP OF WORK PIECE)

(MATERIAL TYPE= 1.5" MDF)
(TOOL= 0.25" ENDMILL)

G20 (SET CODE TO INCH)
G17 (XY PLANE SELECTION)
G28 G91 Z0 (SEND TO RETURN POS.)
G90 (ABSOLUTE POSITON)
G54 (WORK CORD)
G94 (INCHES PER MINUTE)
M08 (SPINDLE COOLANT, DUST COLLECTION)
M03 S3500
G04 U10.0
G0 Z1.0

(PASSES 1)
G01 G90 X0 Y0.375 F60.0
G01 Z-0 F5.0
G03 X-0.375 Y0 R0.375 F15.0
G03 X0 Y-0.375 R0.375 F15.0
G03 X0.375 Y0 R0.375 F15.0
G03 X0 Y0.375 R0.375 F15.0

(PASSES 2)
G01 G90 X0 Y0.375 F60.0
G01 Z-0.040 F5.0
G03 X-0.375 Y0 R0.375 F15.0
G03 X0 Y-0.375 R0.375 F15.0
G03 X0.375 Y0 R0.375 F15.0
G03 X0 Y0.375 R0.375 F15.0

(PASSES 3)
G01 G90 X0 Y0.375 F60.0
G01 Z-0.080 F5.0
G03 X-0.375 Y0 R0.375 F15.0
G03 X0 Y-0.375 R0.375 F15.0
G03 X0.375 Y0 R0.375 F15.0
G03 X0 Y0.375 R0.375 F15.0

(PASSES 4)
G01 G90 X0 Y0.375 F60.0
G01 Z-0.120 F5.0
G03 X-0.375 Y0 R0.375 F15.0
G03 X0 Y-0.375 R0.375 F15.0
G03 X0.375 Y0 R0.375 F15.0
G03 X0 Y0.375 R0.375 F15.0

(PASSES 5)
G01 G90 X0 Y0.375 F60.0
G01 Z-0.160 F5.0
G03 X-0.375 Y0 R0.375 F15.0
G03 X0 Y-0.375 R0.375 F15.0
G03 X0.375 Y0 R0.375 F15.0
G03 X0 Y0.375 R0.375 F15.0

(PASSES 6)
G01 G90 X0 Y0.375 F60.0
G01 Z-0.200 F5.0
G03 X-0.375 Y0 R0.375 F15.0
G03 X0 Y-0.375 R0.375 F15.0
G03 X0.375 Y0 R0.375 F15.0
G03 X0 Y0.375 R0.375 F15.0

(PASSES 7)
G01 G90 X0 Y0.375 F60.0
G01 Z-0.240 F5.0
G03 X-0.375 Y0 R0.375 F15.0
G03 X0 Y-0.375 R0.375 F15.0
G03 X0.375 Y0 R0.375 F15.0
G03 X0 Y0.375 R0.375 F15.0

(PASSES 8)
G01 G90 X0 Y0.375 F60.0
G01 Z-0.280 F5.0
G03 X-0.375 Y0 R0.375 F15.0
G03 X0 Y-0.375 R0.375 F15.0
G03 X0.375 Y0 R0.375 F15.0
G03 X0 Y0.375 R0.375 F15.0

(PASSES 9)
G01 G90 X0 Y0.375 F60.0
G01 Z-0.320 F5.0
G03 X-0.375 Y0 R0.375 F15.0
G03 X0 Y-0.375 R0.375 F15.0
G03 X0.375 Y0 R0.375 F15.0
G03 X0 Y0.375 R0.375 F15.0

(PASSES 10)
G01 G90 X0 Y0.375 F60.0
G01 Z-0.360 F5.0
G03 X-0.375 Y0 R0.375 F15.0
G03 X0 Y-0.375 R0.375 F15.0
G03 X0.375 Y0 R0.375 F15.0
G03 X0 Y0.375 R0.375 F15.0

(PASSES 11)
G01 G90 X0 Y0.375 F60.0
G01 Z-0.400 F5.0
G03 X-0.375 Y0 R0.375 F15.0
G03 X0 Y-0.375 R0.375 F15.0
G03 X0.375 Y0 R0.375 F15.0
G03 X0 Y0.375 R0.375 F15.0

(PASSES 12)
G01 G90 X0 Y0.375 F60.0
G01 Z-0.440 F5.0
G03 X-0.375 Y0 R0.375 F15.0
G03 X0 Y-0.375 R0.375 F15.0
G03 X0.375 Y0 R0.375 F15.0
G03 X0 Y0.375 R0.375 F15.0

(PASSES 13)
G01 G90 X0 Y0.375 F60.0
G01 Z-0.480 F5.0
G03 X-0.375 Y0 R0.375 F15.0
G03 X0 Y-0.375 R0.375 F15.0
G03 X0.375 Y0 R0.375 F15.0
G03 X0 Y0.375 R0.375 F15.0

(PASSES 14)
G01 G90 X0 Y0.375 F60.0
G01 Z-0.520 F5.0
G03 X-0.375 Y0 R0.375 F15.0
G03 X0 Y-0.375 R0.375 F15.0
G03 X0.375 Y0 R0.375 F15.0
G03 X0 Y0.375 R0.375 F15.0

(PASSES 15)
G01 G90 X0 Y0.375 F60.0
G01 Z-0.560 F5.0
G03 X-0.375 Y0 R0.375 F15.0
G03 X0 Y-0.375 R0.375 F15.0
G03 X0.375 Y0 R0.375 F15.0
G03 X0 Y0.375 R0.375 F15.0

(PASSES 16)
G01 G90 X0 Y0.375 F60.0
G01 Z-0.600 F5.0
G03 X-0.375 Y0 R0.375 F15.0
G03 X0 Y-0.375 R0.375 F15.0
G03 X0.375 Y0 R0.375 F15.0
G03 X0 Y0.375 R0.375 F15.0

(PASSES 17)
G01 G90 X0 Y0.375 F60.0
G01 Z-0.640 F5.0
G03 X-0.375 Y0 R0.375 F15.0
G03 X0 Y-0.375 R0.375 F15.0
G03 X0.375 Y0 R0.375 F15.0
G03 X0 Y0.375 R0.375 F15.0

(PASSES 18)
G01 G90 X0 Y0.375 F60.0
G01 Z-0.680 F5.0
G03 X-0.375 Y0 R0.375 F15.0
G03 X0 Y-0.375 R0.375 F15.0
G03 X0.375 Y0 R0.375 F15.0
G03 X0 Y0.375 R0.375 F15.0

(PASSES 19)
G01 G90 X0 Y0.375 F60.0
G01 Z-0.720 F5.0
G03 X-0.375 Y0 R0.375 F15.0
G03 X0 Y-0.375 R0.375 F15.0
G03 X0.375 Y0 R0.375 F15.0
G03 X0 Y0.375 R0.375 F15.0

(PASSES 20)
G01 G90 X0 Y0.375 F60.0
G01 Z-0.760 F5.0
G03 X-0.375 Y0 R0.375 F15.0
G03 X0 Y-0.375 R0.375 F15.0
G03 X0.375 Y0 R0.375 F15.0
G03 X0 Y0.375 R0.375 F15.0

(PASSES 21)
G01 G90 X0 Y0.375 F60.0
G01 Z-0.800 F5.0
G03 X-0.375 Y0 R0.375 F15.0
G03 X0 Y-0.375 R0.375 F15.0
G03 X0.375 Y0 R0.375 F15.0
G03 X0 Y0.375 R0.375 F15.0

(PASSES 22)
G01 G90 X0 Y0.375 F60.0
G01 Z-0.840 F5.0
G03 X-0.375 Y0 R0.375 F15.0
G03 X0 Y-0.375 R0.375 F15.0
G03 X0.375 Y0 R0.375 F15.0
G03 X0 Y0.375 R0.375 F15.0

(PASSES 23)
G01 G90 X0 Y0.375 F60.0
G01 Z-0.880 F5.0
G03 X-0.375 Y0 R0.375 F15.0
G03 X0 Y-0.375 R0.375 F15.0
G03 X0.375 Y0 R0.375 F15.0
G03 X0 Y0.375 R0.375 F15.0

(PASSES 24)
G01 G90 X0 Y0.375 F60.0
G01 Z-0.920 F5.0
G03 X-0.375 Y0 R0.375 F15.0
G03 X0 Y-0.375 R0.375 F15.0
G03 X0.375 Y0 R0.375 F15.0
G03 X0 Y0.375 R0.375 F15.0

(PASSES 25)
G01 G90 X0 Y0.375 F60.0
G01 Z-0.960 F5.0
G03 X-0.375 Y0 R0.375 F15.0
G03 X0 Y-0.375 R0.375 F15.0
G03 X0.375 Y0 R0.375 F15.0
G03 X0 Y0.375 R0.375 F15.0

(PASSES 26)
G01 G90 X0 Y0.375 F60.0
G01 Z-1.000 F5.0
G03 X-0.375 Y0 R0.375 F15.0
G03 X0 Y-0.375 R0.375 F15.0
G03 X0.375 Y0 R0.375 F15.0
G03 X0 Y0.375 R0.375 F15.0

(PASSES 27)
G01 G90 X0 Y0.375 F60.0
G01 Z-1.040 F5.0
G03 X-0.375 Y0 R0.375 F15.0
G03 X0 Y-0.375 R0.375 F15.0
G03 X0.375 Y0 R0.375 F15.0
G03 X0 Y0.375 R0.375 F15.0

(PASSES 28)
G01 G90 X0 Y0.375 F60.0
G01 Z-1.080 F5.0
G03 X-0.375 Y0 R0.375 F15.0
G03 X0 Y-0.375 R0.375 F15.0
G03 X0.375 Y0 R0.375 F15.0
G03 X0 Y0.375 R0.375 F15.0

(PASSES 29)
G01 G90 X0 Y0.375 F60.0
G01 Z-1.120 F5.0
G03 X-0.375 Y0 R0.375 F15.0
G03 X0 Y-0.375 R0.375 F15.0
G03 X0.375 Y0 R0.375 F15.0
G03 X0 Y0.375 R0.375 F15.0

(PASSES 30)
G01 G90 X0 Y0.375 F60.0
G01 Z-1.160 F5.0
G03 X-0.375 Y0 R0.375 F15.0
G03 X0 Y-0.375 R0.375 F15.0
G03 X0.375 Y0 R0.375 F15.0
G03 X0 Y0.375 R0.375 F15.0

(PASSES 31)
G01 G90 X0 Y0.375 F60.0
G01 Z-1.200 F5.0
G03 X-0.375 Y0 R0.375 F15.0
G03 X0 Y-0.375 R0.375 F15.0
G03 X0.375 Y0 R0.375 F15.0
G03 X0 Y0.375 R0.375 F15.0

(PASSES 32)
G01 G90 X0 Y0.375 F60.0
G01 Z-1.240 F5.0
G03 X-0.375 Y0 R0.375 F15.0
G03 X0 Y-0.375 R0.375 F15.0
G03 X0.375 Y0 R0.375 F15.0
G03 X0 Y0.375 R0.375 F15.0

(PASSES 33)
G01 G90 X0 Y0.375 F60.0
G01 Z-1.280 F5.0
G03 X-0.375 Y0 R0.375 F15.0
G03 X0 Y-0.375 R0.375 F15.0
G03 X0.375 Y0 R0.375 F15.0
G03 X0 Y0.375 R0.375 F15.0
G28 G91 Z0
M05
M09 (SPINDLE COOLANT, DUST COLLECTION OFF)
G0 G90 X0 Y0
M2
M30
%